src/assets/duotone/Wallet.svg

<svg width="24" height="24" viewBox="0 0 24 24"  xmlns="http://www.w3.org/2000/svg">
<path opacity="0.4" d="M22 12V17C22 20 20 22 17 22H7C4 22 2 20 2 17V12C2 9.28 3.64 7.38 6.19 7.06C6.45 7.02 6.72 7 7 7H17C17.26 7 17.51 7.00999 17.75 7.04999C20.33 7.34999 22 9.26 22 12Z" />
<path d="M17.7499 7.05C17.5099 7.01 17.2599 7.00001 16.9999 7.00001H6.99994C6.71994 7.00001 6.44994 7.02001 6.18994 7.06001C6.32994 6.78001 6.52994 6.52001 6.76994 6.28001L10.0199 3.02C11.3899 1.66 13.6099 1.66 14.9799 3.02L16.7299 4.79002C17.3699 5.42002 17.7099 6.22 17.7499 7.05Z" />
<path d="M22 12.5H19C17.9 12.5 17 13.4 17 14.5C17 15.6 17.9 16.5 19 16.5H22" />
</svg>

<?xml version="1.0" encoding="UTF-8"?>
<svg width="24" height="24" viewBox="0 0 24 24" xmlns="http://www.w3.org/2000/svg">
 <path d="m22 12v5c0 3-2 5-5 5h-10c-3 0-5-2-5-5v-5c0-2.72 1.64-4.62 4.19-4.94 0.26-0.04 0.53-0.06 0.81-0.06h10c0.26 0 0.51 0.00999 0.75 0.04999 2.58 0.3 4.25 2.21 4.25 4.95z" opacity=".4"/>
 <path d="m17.75 7.05c-0.24-0.04-0.49-0.04999-0.75-0.04999h-10c-0.28 0-0.55 0.02-0.81 0.06 0.14-0.28 0.34-0.54 0.58-0.78l3.25-3.26c1.37-1.36 3.59-1.36 4.96 0l1.75 1.77c0.64 0.63 0.98 1.43 1.02 2.26z"/>
 <path d="m22 12.5h-3c-1.1 0-2 0.9-2 2s0.9 2 2 2h3"/>
</svg>
